X: 6801
T: Charles O'Connor
R: jig
M: 6/8
K: Dmajor
|:d2A d2A|BAG FAA|Bcd ecA|df/g/a a2g|
fef BAB|ede AGA|dcB AFA|d2 d2:|
|:A2D F/G/AF|BG/A/B AFA|D2A FG/A/D|GEe c2A|
f2f faf|faf fdB|e2e eae|eae ecA|
dcB AFE|FAA f2e|dcB AFA|d2 d2:|

